assets/img/icons/duotone-icons/Devices/Battery-charging.svg

<?xml version="1.0" encoding="UTF-8"?>
<svg width="24px" height="24px" viewBox="0 0 24 24" version="1.1" xmlns="http://www.w3.org/2000/svg" xmlns:xlink="http://www.w3.org/1999/xlink">
    <!-- Generator: Sketch 52.2 (67145) - http://www.bohemiancoding.com/sketch -->
    <title>Stockholm-icons / Devices / Battery-charging</title>
    <desc>Created with Sketch.</desc>
    <g id="Stockholm-icons-/-Devices-/-Battery-charging" stroke="none" stroke-width="1" fill="none" fill-rule="evenodd">
        <rect id="bound" x="0" y="0" width="24" height="24"></rect>
        <path d="M4,9 L4,15 L17,15 L17,9 L4,9 Z M4,7 L17,7 C18.1045695,7 19,7.8954305 19,9 L19,15 C19,16.1045695 18.1045695,17 17,17 L4,17 C2.8954305,17 2,16.1045695 2,15 L2,9 C2,7.8954305 2.8954305,7 4,7 Z" id="Combined-Shape" fill="#335EEA"></path>
        <path d="M10.3561738,14.0547828 L11.7400488,12.324939 C11.8090507,12.2386866 11.7950664,12.1128281 11.708814,12.0438262 C11.6733514,12.0154562 11.6292893,12 11.583875,12 L11,12 L11,10.1605551 C11,10.0500982 10.9104569,9.96055513 10.8,9.96055513 C10.7331294,9.96055513 10.6706831,9.99397535 10.6335899,10.0496151 L9.20729336,12.18906 C9.14602287,12.2809657 9.17085764,12.4051396 9.26276338,12.4664101 C9.29561688,12.4883124 9.33421842,12.5 9.37370342,12.5 L10,12.5 L10,13.9298438 C10,14.0403007 10.0895431,14.1298438 10.2,14.1298438 C10.2607567,14.1298438 10.3182193,14.1022258 10.3561738,14.0547828 Z" id="Path-3" fill="#335EEA" opacity="0.3"></path>
        <path d="M20,10 L21,10 C21.5522847,10 22,10.4477153 22,11 L22,13 C22,13.5522847 21.5522847,14 21,14 L20,14 L20,10 Z" id="Rectangle" fill="#335EEA" opacity="0.3"></path>
    </g>
</svg>

<svg width="24" height="24" viewBox="0 0 24 24" xmlns="http://www.w3.org/2000/svg"><g fill="none" fill-rule="evenodd"><path d="M0 0h24v24H0z"/><path d="M4 9v6h13V9H4zm0-2h13a2 2 0 012 2v6a2 2 0 01-2 2H4a2 2 0 01-2-2V9a2 2 0 012-2z" fill="#335EEA"/><path d="M10.356 14.055l1.384-1.73a.2.2 0 00-.156-.325H11v-1.84a.2.2 0 00-.366-.11l-1.427 2.14a.2.2 0 00.167.31H10v1.43a.2.2 0 00.356.125zM20 10h1a1 1 0 011 1v2a1 1 0 01-1 1h-1v-4z" fill="#335EEA" opacity=".3"/></g></svg>
